X:1
T:Vier Lieder für gemischten Chor
T:Senk dich süße Ruhe
T:Cyrill Kistler
T:Heinerici
T:Senk dich süße Ruhe
T:Op. 20, No. 4
T:CPDL   —   Creative Commons Attribution Non Commercial 3.0
T:CPDL   —   Creative Commons Attribution Non Commercial 3.0
T:CPDL   —   Creative Commons Attribution Non Commercial 3.0
T:CPDL   —   Creative Commons Attribution Non Commercial 3.0
T:CPDL   —   Creative Commons Attribution Non Commercial 3.0
T:CPDL   —   Creative Commons Attribution Non Commercial 3.0
T:CPDL   —   Creative Commons Attribution Non Commercial 3.0
T:CPDL   —   Creative Commons Attribution Non Commercial 3.0
C:Cyrill Kistler
Z:Heinerici
Z:CPDL   —   Creative Commons Attribution Non Commercial 3.0
%%score [ 1 2 3 4 ]
L:1/8
Q:1/4=80
M:3/4
K:Eb
V:1 treble nm="Sopran"
V:2 treble nm="Alt"
V:3 treble-8 nm="Tenor"
V:4 bass nm="Bass"
V:1
!mf!"^Feierlich"!>(! G4 F2!>)! |!>(! A4 G2!>)! | (c2 B2) A2 | A2 G2 z2 |"^cresc." c4 c2 | %5
w: Senk dich,|sü- ße|Ru- * he|nie- der,|wie- ge|
 c=Bc_d c2 | e=def e2 |!f! !>!e4!pp! e>c | !^!B3 =A"^ten." !^!c>B | !^!B2 =A2!mp! f>d | %10
w: ein _ _ _ das|mü- * * * de|Herz, und ent-|rück' im sel'- gen|Träu- men mich der|
 !^!c3 =B d>c |!>(! (c2 =B2)!>)! z2 |!pp!"^Sehr leise und langsam" (.B4 .A2) | (.G4 .A2) | %14
w: Er- de bitt'- rem|Schmerz. _|Brei- te|dei- ne|
 (.B4 .=A2) | (.B4 .E2) | (.c4 .B2 | ._A4 .B2 | .c4 .=B2 | .c2)!<(! E2 A!<)!c |!f! (e2 =d2) c2 | %21
w: Flü- gel|lei- se|ü- ber|mir, dem|Mü- den|aus, brei- te _|ü- * ber|
 _B4 BA | (G2 F3) E | E4 z2 |!pp!"^Flehend" G4 G2 | G4 G2 | (A3 B) cd | e4 B2 |!>(! =A4!>)! _AB | %29
w: mir dem _|Mü- * den|aus.|Lass mich|ein- mal|wie- * der _|schlum- mern,|wie da- *|
!>(! G4!>)! GA |!>(! F4 GD!>)! | E4 z2 |!f! (c3 B) AG | G2 F4 | _d3 c BA | A>G G2!pp! G2- | G4 G2 | %37
w: heim im _|Va- ter- *|haus.|Lass _ mich _|schlum- mern,|wie da- heim im|Va- ter- haus, wie|_ da-|
 (G2 F2) E2 |!<(! D4!<)! E=E |!>(! F4!>)! z2 |!mf!"^Feierlich"!>(! G4!>)! F2 |!>(! A4!>)! G2 | %42
w: heim _ im|Va- ter- *|haus.|Brin- ge|Frie- de,|
 (c2 B2) A2 | A2 G2 z2 |!<(! c4!<)! c2 |!<(! (c2 f_e) dc!<)! |!p!!<(! B4 B2 | (B2 edcB)!<)! | %48
w: lehr _ ver-|ges- sen|heiß er-|fleh- * * te, _|sü- ße|Ruh', _ _ _ _|
!p! (B2 A2) G2 | G4 c2 |!<(! (F2 c2) e2!<)! |!<(! e4 d2!<)! |!f!"^Sehr breit" (e2 d2) c2 | B4 BA | %54
w: o- * der|führ in|dei- * nen|Ar- men|mich _ der|ew'- gen _|
 (G6 | F4) E2 | !fermata!E6 |] %57
w: Hei-|* mat|zu.|
V:2
!mf!!>(! E4 E2!>)! |!>(! E4 E2!>)! | F4 F2 | F2 D2 z2 |"^cresc." G^FG=F =E2 | F4 F2 | G4 G2 | %7
w: |||||||
!f!!>(! AGAB!>)!!pp! A>A | !^!_G3 G"^ten." !^!G>G | !^!F2 F2!mp! B>B | !^!_A3 A A>A | %11
w: ||||
!>(! G4!>)! z2 | z2!pp!"^marcato" E4- | E2 E4- | E2 E4- | E2 E4 | E2 E4 | E2 E4- | E2 E4 | E4 z2 | %20
w: |Brei-|* te|_ dei-|* ne|Flü- gel|ü- ber|_ mir|aus,|
!f! E4 E2 | (F2 E2) E2 | D4 D2 | B,4 z2 |!pp! E4 E2 | D4 _D2 | (C2 E2) E2 | E4 E2 |!>(! E4!>)! D2 | %29
w: ü- ber|mir _ dem|Mü- den|aus.||||||
!>(! (D2 C2)!>)! C2 |!>(! (C2 =B,2) B,2!>)! | C4 z2 |!f! =E4 E2 | (=E2 F2) _E2 | _DE FE DC | %35
w: |||Lass mich|schlum- * mern,|wie da- heim _ im _|
 =B,>B, B,2 z2 |!pp! C4 C2 | C4 _C2 |!<(! B,4!<)! B,2 |!>(! D4!>)! z2 |!mf!!>(! E4!>)! E2 | %41
w: Va- ter- haus,|wie da-|heim im|Va- ter-|haus.||
!>(! E4!>)! E2 | F4 F2 | F2 D2 z2 |!<(! (G2 F2)!<)! =E2 |!<(! (=EG F2) F2!<)! | %46
w: |||||
!p!!<(! (F2 _E2) D2 | (DF E4)!<)! |!p! E4 F2 | (F2 =E2) E2 |!<(! F4 F2!<)! |!<(! F4 F2!<)! | %52
w: ||||||
!f! E4 E2 | E4 E2 | (E2 =D2 C2 | D4) E2 | !fermata!E6 |] %57
w: |||||
V:3
!mf!!>(! B4 A2!>)! |!>(! c4 B2!>)! | (A2 B2) c2 | c2 =B2 z2 |"^cresc." _B4 B2 | (A2 c2) fe | %6
w: Senk dich,|sü- ße|Ru- * he|nie- der,|wie- ge|ein _ das _|
 _d4 dB |!f!!>(! e4!>)!!pp! e>e | !^!e3 e"^ten." !^!e>e | !^!e2 e2!mp! f>f | !^!f3 f f>f | %11
w: mü- de _|Herz, und ent-|rück' im sel'- gen|Träu- men mich der|Er- de bitt'- rem|
!>(! f4!>)! z2 |!pp! (._d4 .d2) | (._d4 .d2) | (._d4 .d2) | (._d4 .d2) | (.c4 .c2 | .c4 .e2 | %18
w: Schmerz.|Brei- te|dei- ne|Flü- gel|lei- se|ü- ber|mir, dem|
 .c4 ._d2 | .c4) z2 |!f! A4 A2 | (A2 G2) c2 | B4 A2 | G4 z2 |!pp! c4 c2 | (c2 =B2) _B2 | %26
w: Mü- den|aus,|ü- ber|mir _ dem|Mü- den|aus.|Lass mich|ein- * mal|
 (A2 c2) c2 | B4 B2 |!>(! (c2 _c2)!>)! B2 |!>(! (B2 A2)!>)! A2 |!>(! (A2 G2) G2!>)! | G4!f! G2- | %32
w: wie- * der|schlum- mern,|wie _ da-|heim _ im|Va- * ter-|haus. Lass|
 G4 cB | _A4 =A2 | B3 F FF | F>F F2 z2 |!pp! (G2 c2) B2 | =A4 _A2 |!<(! (A2 F2)!<)! _G=G | %39
w: _ mich _|schlum- mern,|wie da- heim im|Va- ter- haus,|wie _ da-|heim im|Va- * ter- *|
!>(! A4!>)! z2 |!mf!!>(! B4!>)! A2 |!>(! c4!>)! B2 | (A2 B2) c2 | c2 =B2 z2 |!<(! _B4!<)! B2 | %45
w: haus.|Brin- ge|Frie- de,|lehr _ ver-|ges- sen|heiß er-|
!<(! (A2 c2) c2!<)! |!p!!<(! A4 A2 | B6!<)! |!p! c4 d2 | c4 c2 |!<(! c4 c2!<)! | %51
w: fleh- * te,|sü- ße|Ruh',|o- der|führ in|dei- nen|
!<(! (c2 _c2) c2!<)! |!f! B4 =A2 | (Bc _d2) c2 | (B6 | [AB]4) [AB]2 | !fermata![GB]6 |] %57
w: Ar- * men|mich der|ew'- * * gen|Hei-|* mat|zu.|
V:4
!mf!!>(! E,4 E,2!>)! |!>(! E,4 E,2!>)! | D,4 D,2 | (G,,2 G,2) F,2 |"^cresc." (=E,3 =F,) G,2 | %5
w: |||nie- * der,||
 A,4 A,2 | B,4 E,2 |!f!!>(! C4!>)!!pp! C>C | !^!C3 C"^ten." !^!=A,>B, | !^!C2 C2!mp! D>D | %10
w: |||||
 !^!D3 D =B,>C |!>(! D4!>)!!pp! G,2- |!pp! (.G,4 .F,2) | (.E,4 .F,2) | (.G,4 .^F,2) | (.G,4 .G,2) | %16
w: |* Brei-|* te|dei- ne|Flü- gel|lei- se|
 (.A,4 .G,2 | .F,4 .G,2 | .A,4 .G,2 | .A,4) z2 |!f! C,4 C,2 | (D,2 E,2) A,,2 | B,,4 B,,2 | E,4 z2 | %24
w: ü- ber|mir, dem|Mü- den|aus,|||||
 z6 | z6 |!pp! A,4 A,2 | (A,2 G,2) _G,2 |!>(! F,3 F,!>)! B,,2 |!>(! E,4!>)! A,,2 | %30
w: ||Lass mich|ein- * mal|schlum- mern, da-|heim im|
!>(! D,4 G,,2!>)! | C,4 z2 |!f! C,4 C,2 | _D,4 C,2 | B,,3 B,, B,,C, | _D,>=D, D,2 z2 | %36
w: Va- ter-|haus.|Lass mich|schlum- mern,|wie da- heim im||
!pp! E,4 =E,2 | F,4 F,,2 |!<(! B,,4!<)! B,,2 |!>(! B,,4!>)! z2 |!mf!!>(! E,4!>)! E,2 | %41
w: |||||
!>(! E,4!>)! E,2 | D,4 D,2 | (G,,2 G,2) F,2 |!<(! (=E,2 F,2)!<)! G,2 |!<(! A,4 A,2!<)! | %46
w: |* ver-|ges- * sen|||
!p!!<(! (D,2 E,2) F,2 | G,6!<)! | z2!p! C2 =B,2 | _B,4 B,2 |!<(! =A,4 A,2!<)! |!<(! _A,4 A,2!<)! | %52
w: ||o- der||||
!f! G,4 ^F,2 | (G,2 G,,2) _A,,2 | B,,6- | B,,4 B,,2 | !fermata![E,,E,]6 |] %57
w: |||||

